brandFactory_export/1.Light/Internet pendrive_1Light.svg

<?xml version="1.0" encoding="UTF-8"?>
<svg width="24px" height="24px" viewBox="0 0 24 24" version="1.1" xmlns="http://www.w3.org/2000/svg" xmlns:xlink="http://www.w3.org/1999/xlink">
    <title>1.Light/Internet pendrive_1Light</title>
    <g id="Symbols" stroke="none" stroke-width="1" fill="none" fill-rule="evenodd">
        <g id="1.Light/Internet-pendrive_1Light" fill="#5CB615" fill-rule="nonzero">
            <path d="M11.4588235,15.3848739 C11.9495798,15.3848739 12.2655462,15.6470588 12.2655462,16.2117647 C12.2655462,16.4840336 12.1915966,16.6857143 12.0605042,16.8235294 C11.9193277,16.9714286 11.7109244,17.0420168 11.4554622,17.0420168 C11.2,17.0420168 10.9915966,16.9714286 10.8504202,16.8235294 C10.7193277,16.6857143 10.6453782,16.4840336 10.6453782,16.2117647 C10.6487395,15.6470588 10.9680672,15.3848739 11.4588235,15.3848739 L11.4588235,15.3848739 Z M12.1882353,4.53781513 C12.1882353,4.81680672 11.9697479,5.04201681 11.697479,5.04201681 C4.48403361,5.04201681 0.981512605,8.65546218 0.981512605,16.087395 C0.981512605,16.3663866 0.76302521,16.594958 0.490756303,16.594958 C0.218487395,16.594958 0,16.3697479 0,16.087395 C0,8.08739496 3.93613445,4.0302521 11.697479,4.0302521 C11.9697479,4.03361345 12.1882353,4.25882353 12.1882353,4.53781513 Z M12.1680672,8.64201681 C12.1680672,8.9210084 11.9495798,9.14621849 11.6773109,9.14621849 C7.11260504,9.14621849 4.89411765,11.4352941 4.89411765,16.1378151 C4.89411765,16.4168067 4.67563025,16.6420168 4.40336134,16.6420168 C4.13109244,16.6420168 3.91260504,16.4168067 3.91260504,16.1378151 C3.91260504,10.9008403 6.59831933,8.13445378 11.6773109,8.13445378 C11.9462185,8.13445378 12.1680672,8.35966387 12.1680672,8.64201681 Z M22.6420168,17.9663866 L22.6420168,14.3327731 C22.6386555,14.1109244 22.4672269,13.9193277 22.2554622,13.8991597 L21.0789916,13.8991597 L21.0789916,18.4067227 L22.2319328,18.4067227 C22.4571429,18.4033613 22.6420168,18.205042 22.6420168,17.9663866 Z M19.4521008,19.7546218 C19.8117647,19.7546218 20.107563,19.4453782 20.107563,19.0689076 L20.107563,18.907563 L20.097479,18.907563 L20.097479,13.2638655 C20.097479,12.8840336 19.8016807,12.5781513 19.4420168,12.5781513 L12.312605,12.5781513 C10.1714286,12.6487395 9.0789916,13.8554622 9.0789916,16.1613445 C9.0789916,18.4672269 10.1714286,19.6739496 12.3294118,19.7546218 L19.4521008,19.7546218 Z M22.2184874,12.8806723 C22.9781513,12.8806723 23.6067227,13.5260504 23.6235294,14.3193277 L23.6235294,17.9663866 C23.6235294,18.7630252 22.9983193,19.4151261 22.2285714,19.4151261 L21.0521008,19.4151261 C20.897479,20.1848739 20.2386555,20.7663866 19.4487395,20.7663866 L12.2890756,20.7663866 C9.58319328,20.6655462 8.0907563,19.0285714 8.0907563,16.1613445 C8.0907563,13.287395 9.58319328,11.6537815 12.2890756,11.5663866 L19.4352941,11.5663866 C20.2117647,11.5663866 20.8638655,12.1310924 21.0319328,12.8840336 L21.4184874,12.8840336 L21.4184874,12.8806723 L22.2184874,12.8806723 Z" id="Internet-pendrive_1Light"></path>
        </g>
    </g>
</svg>

<svg width="24" height="24" viewBox="0 0 24 24" xmlns="http://www.w3.org/2000/svg"><path d="M11.459 15.385c.49 0 .807.262.807.827 0 .272-.074.474-.205.612-.142.147-.35.218-.606.218-.255 0-.463-.07-.605-.218-.13-.138-.205-.34-.205-.612.004-.565.323-.827.814-.827zm.73-10.847a.496.496 0 01-.492.504C4.484 5.042.982 8.655.982 16.087a.5.5 0 01-.491.508.497.497 0 01-.491-.508c0-8 3.936-12.057 11.697-12.057.273.004.491.229.491.508zm-.02 4.104a.496.496 0 01-.492.504c-4.564 0-6.783 2.29-6.783 6.992a.496.496 0 01-.49.504.496.496 0 01-.491-.504c0-5.237 2.685-8.004 7.764-8.004a.5.5 0 01.491.508zm10.473 9.324v-3.633a.442.442 0 00-.387-.434H21.08v4.508h1.153c.225-.004.41-.202.41-.44zm-3.19 1.789c.36 0 .656-.31.656-.686v-.161h-.01v-5.644c0-.38-.296-.686-.656-.686h-7.13c-2.14.07-3.233 1.277-3.233 3.583s1.092 3.513 3.25 3.594h7.123zm2.766-6.874c.76 0 1.389.645 1.406 1.438v3.647c0 .797-.626 1.45-1.395 1.45h-1.177c-.155.769-.813 1.35-1.603 1.35h-7.16c-2.706-.1-4.198-1.737-4.198-4.605 0-2.874 1.492-4.507 4.198-4.595h7.146c.777 0 1.429.565 1.597 1.318h.386v-.003h.8z" fill="#5CB615" fill-rule="nonzero"/></svg>
